img/tg.svg

<svg width="22" height="22" viewBox="0 0 22 22" fill="none" xmlns="http://www.w3.org/2000/svg">
<path d="M9.88711 0C10.3111 0 10.7356 0 11.1596 0C11.2122 0.0115179 11.2643 0.0296175 11.3175 0.0334568C12.8966 0.152475 14.3802 0.593447 15.7404 1.40244C18.5354 3.06486 20.2494 5.49624 20.8516 8.69877C20.9235 9.07995 20.9602 9.46827 21.0129 9.8533C21.0129 10.2773 21.0129 10.7018 21.0129 11.1258C21.0014 11.1916 20.9882 11.2574 20.9778 11.3232C20.8933 11.8629 20.8456 12.4108 20.7205 12.9406C19.2309 19.2393 12.4205 22.7056 6.45916 20.2079C1.90959 18.302 -0.675908 13.578 0.15393 8.68725C0.870235 4.46621 4.2214 1.02839 8.42873 0.210065C8.91028 0.116825 9.40117 0.0691075 9.88711 0ZM10.8941 13.4074C11.1426 13.5758 11.3746 13.7321 11.606 13.8895C12.3925 14.4232 13.1768 14.9601 13.9666 15.4883C14.3988 15.7773 14.9062 15.592 15.0159 15.1071C15.6965 12.1092 16.3744 9.11067 17.0518 6.11217C17.1242 5.79186 16.9487 5.48582 16.6273 5.42823C16.4622 5.39861 16.2697 5.4211 16.1106 5.47814C12.1699 6.891 8.23237 8.31154 4.29435 9.73099C4.04589 9.82039 3.93181 9.95477 3.93729 10.1478C3.94277 10.3491 4.07112 10.478 4.33548 10.5499C5.25143 10.7994 6.16573 11.0534 7.08387 11.2952C7.24896 11.3386 7.32904 11.4203 7.38224 11.5804C7.71846 12.5913 8.06509 13.5988 8.40898 14.6069C8.51593 14.9195 8.71777 15.0808 8.99749 15.0303C9.13516 15.0056 9.27941 14.9234 9.38417 14.8274C9.88931 14.3656 10.3818 13.8912 10.8941 13.4074Z" fill="#07C4FF"/>
<path d="M21.0135 9.8533C20.9608 9.46827 20.9241 9.0805 20.8522 8.69877C20.25 5.49624 18.5366 3.06486 15.741 1.40244C14.3808 0.593447 12.8972 0.152475 11.3181 0.0334568C11.2649 0.0296175 11.2128 0.0115179 11.1602 0C14.4444 0 17.7292 0 21.0135 0C21.0135 3.28425 21.0135 6.56905 21.0135 9.8533Z" fill="white"/>
<path d="M8.74781 14.013C8.72203 13.9559 8.69131 13.9005 8.67157 13.8413C8.40282 13.0389 8.13516 12.2365 7.86861 11.4335C7.7825 11.1746 7.81211 11.0962 8.04247 10.964C10.1755 9.74146 12.3085 8.51946 14.442 7.29747C14.4892 7.27059 14.5386 7.2311 14.5879 7.22946C14.6411 7.22781 14.7185 7.2492 14.7426 7.2876C14.7645 7.32215 14.7415 7.40003 14.7152 7.44556C14.69 7.48998 14.6357 7.5185 14.5934 7.55306C12.8262 8.99828 11.0602 10.4446 9.28915 11.8849C9.12351 12.0198 9.03411 12.1619 9.01601 12.3802C8.97652 12.8562 8.90906 13.3307 8.85147 13.8051C8.84324 13.8709 8.82514 13.9351 8.81198 14.0003C8.79004 14.0047 8.76865 14.0091 8.74781 14.013Z" fill="#07C4FF"/>
</svg>

<svg width="22" height="22" fill="none" xmlns="http://www.w3.org/2000/svg"><path d="M9.887 0h1.273c.052.012.104.03.158.033 1.579.12 3.062.56 4.422 1.37 2.795 1.662 4.51 4.093 5.112 7.296.072.381.108.77.16 1.154v1.273c-.01.066-.024.131-.034.197-.085.54-.132 1.088-.258 1.618-1.49 6.298-8.3 9.765-14.26 7.267-4.55-1.906-7.136-6.63-6.306-11.52C.87 4.465 4.22 1.027 8.429.21 8.91.117 9.4.07 9.887 0zm1.007 13.407l.712.482c.787.534 1.57 1.071 2.36 1.6.433.288.94.103 1.05-.382.68-2.998 1.358-5.996 2.036-8.995.072-.32-.103-.626-.425-.684a1.05 1.05 0 00-.516.05C12.17 6.891 8.232 8.312 4.294 9.731c-.248.09-.362.224-.357.417.006.201.134.33.398.402.916.25 1.83.503 2.749.745.165.044.245.125.298.285.336 1.011.683 2.019 1.027 3.027.107.313.309.474.588.423a.825.825 0 00.387-.203c.505-.461.998-.936 1.51-1.42z" fill="#07C4FF"/><path d="M21.014 9.853c-.053-.385-.09-.772-.162-1.154-.602-3.203-2.315-5.634-5.111-7.297-1.36-.809-2.844-1.25-4.423-1.369C11.265.03 11.213.012 11.16 0h9.854v9.853z" fill="#fff"/><path d="M8.748 14.013c-.026-.057-.057-.113-.076-.172-.27-.802-.537-1.604-.803-2.407-.087-.26-.057-.338.173-.47l6.4-3.667c.047-.026.097-.066.146-.068.053-.001.13.02.155.059.021.034-.002.112-.028.158-.025.044-.08.073-.122.107-1.767 1.445-3.533 2.892-5.304 4.332a.661.661 0 00-.273.495c-.04.476-.107.95-.165 1.425-.008.066-.026.13-.039.195-.022.005-.043.01-.064.013z" fill="#07C4FF"/></svg>
